svgs/sharp-regular/diagram-cells.svg

<svg xmlns="http://www.w3.org/2000/svg" viewBox="0 0 512 512"><!--! Font Awesome Pro 6.6.0 by @fontawesome - https://fontawesome.com License - https://fontawesome.com/license (Commercial License) Copyright 2024 Fonticons, Inc. --><path d="M512 224l0-192L0 32 0 224l512 0zM464 336l0 96-96 0-224 0-96 0 0-96 416 0zm48 96l0-96 0-48-48 0L48 288 0 288l0 48 0 96 0 48 48 0 416 0 48 0 0-48z"/></svg>

<svg xmlns="http://www.w3.org/2000/svg" viewBox="0 0 512 512"><!--! Font Awesome Pro 6.4.0 by @fontawesome - https://fontawesome.com License - https://fontawesome.com/license (Commercial License) Copyright 2023 Fonticons, Inc. --><path d="M512 224V32H0V224l512 0zM464 336v96l-96 0H144 48l0-96 416 0zm48 96V336 288H464L48 288H0v48 96 48H48l416 0h48V432z"/></svg>
